X:43
T: WIE KOMMTS DASS DU SO TRAURIG BIST
N: F0129
O: Europa, Mitteleuropa, Deutschland
R: Scherz - Lied
M: 3/8
L: 1/16
K: F
C | F3GAB | ccc3
c | d3fed | c4z
c | cBB3B | BAA3
c | cAF2G2 | A4z
c | cAF2G2 | F4z

@@@ Tune index: 5474
